images/eos.svg

<svg width="26" height="26" viewBox="0 0 26 26" fill="none" xmlns="http://www.w3.org/2000/svg">
<path d="M12.9995 25.1334C19.7006 25.1334 25.1329 19.7011 25.1329 13C25.1329 6.29898 19.7006 0.866699 12.9995 0.866699C6.29849 0.866699 0.866211 6.29898 0.866211 13C0.866211 19.7011 6.29849 25.1334 12.9995 25.1334Z" fill="#FF961C"/>
<path fill-rule="evenodd" clip-rule="evenodd" d="M13.0003 3.46668C13.1343 3.46579 13.2642 3.52932 13.3465 3.64317L17.1461 8.89892C17.1812 8.94745 17.2059 9.00289 17.2186 9.06167L19.057 17.5658C19.0955 17.7439 19.0195 17.9273 18.867 18.0241L13.2289 21.6009C13.1588 21.6455 13.0793 21.6672 13.0003 21.6667C12.9212 21.6672 12.8418 21.6455 12.7716 21.6009L7.13352 18.0241C6.98104 17.9273 6.90498 17.7439 6.94349 17.5658L8.78194 9.06167C8.79465 9.00289 8.81934 8.94745 8.85443 8.89892L12.654 3.64317C12.7363 3.52932 12.8662 3.46579 13.0003 3.46668ZM12.5717 5.21733L9.6692 9.23214L10.3587 11.4246L12.5717 7.47068V5.21733ZM13.0003 8.45409L10.711 12.5444L12.1835 17.2266H13.817L15.2896 12.5444L13.0003 8.45409ZM15.8617 13.5667L14.7107 17.2266H17.9101L15.8617 13.5667ZM17.1583 18.0898H14.4392L13.7614 20.2448L17.1583 18.0898ZM13.0003 19.8234L13.5455 18.0898H12.455L13.0003 19.8234ZM11.2898 17.2266L10.1388 13.5667L8.09041 17.2266H11.2898ZM8.37754 14.9644L9.78657 12.4469L9.27407 10.8173L8.37754 14.9644ZM8.84226 18.0898H11.5613L12.2391 20.2448L8.84226 18.0898ZM17.623 14.9644L16.2139 12.4469L16.7265 10.8173L17.623 14.9644ZM16.3313 9.23214L15.6418 11.4246L13.4288 7.47068V5.21733L16.3313 9.23214Z" fill="white"/>
</svg>

<svg width="26" height="26" fill="none" xmlns="http://www.w3.org/2000/svg"><path d="M13 25.133c6.7 0 12.133-5.432 12.133-12.133C25.133 6.299 19.7.867 13 .867 6.297.867.865 6.299.865 13c0 6.701 5.432 12.133 12.133 12.133z" fill="#FF961C"/><path fill-rule="evenodd" clip-rule="evenodd" d="M13 3.467c.134-.001.264.062.347.176l3.8 5.256c.034.048.059.104.072.163l1.838 8.504a.434.434 0 01-.19.458l-5.638 3.577a.42.42 0 01-.229.066.42.42 0 01-.228-.066l-5.638-3.577a.434.434 0 01-.19-.458l1.838-8.504a.434.434 0 01.072-.163l3.8-5.256A.424.424 0 0113 3.467zm-.428 1.75L9.669 9.232l.69 2.193 2.213-3.954V5.217zM13 8.454l-2.289 4.09 1.473 4.683h1.633l1.473-4.683L13 8.454zm2.862 5.113l-1.151 3.66h3.2l-2.05-3.66zm1.296 4.523H14.44l-.678 2.155 3.397-2.155zM13 19.823l.546-1.733h-1.091L13 19.823zm-1.71-2.596l-1.151-3.66-2.049 3.66h3.2zm-2.912-2.263l1.409-2.517-.513-1.63-.896 4.147zm.464 3.126h2.72l.677 2.155-3.397-2.155zm8.781-3.126l-1.41-2.517.514-1.63.896 4.147zm-1.292-5.732l-.69 2.193L13.43 7.47V5.217l2.902 4.015z" fill="#fff"/></svg>
